X: 31
T:Balduzka
T:Choukanoto
O:Bulgaria
S:folk dances from Bulgaria: learned and collected by Jaap Leegwater(BHA10441).
L:1/8
M:2/4
Q:1/4=80
K:Em
|:"G"B/c/B/A/ "D"A G/A/| AB"G"Bz    | "D"d/c/B/A/ A G/F/| DE"Em"Ez :|\
|:"D"DA AG/F/          | "G"DB "D"Az| "G"DB "D"AG/F/    | DE"Em"Ez :|



